assets/svg/svgo/copy.svg

<svg width="20" height="21" viewBox="0 0 20 21" fill="none" xmlns="http://www.w3.org/2000/svg">
<path d="M6.66667 6.33333V13C6.66667 13.9205 7.41286 14.6667 8.33334 14.6667H13.3333M6.66667 6.33333V4.66667C6.66667 3.74619 7.41286 3 8.33334 3H12.1548C12.3758 3 12.5878 3.0878 12.7441 3.24408L16.4226 6.92259C16.5789 7.07887 16.6667 7.29083 16.6667 7.51184V13C16.6667 13.9205 15.9205 14.6667 15 14.6667H13.3333M6.66667 6.33333H5.33334C4.22877 6.33333 3.33334 7.22876 3.33334 8.33333V16.3333C3.33334 17.2538 4.07953 18 5 18H11.3333C12.4379 18 13.3333 17.1046 13.3333 16V14.6667" stroke="#131313" stroke-width="1.2" stroke-linecap="round" stroke-linejoin="round"/>
</svg>

<svg width="20" height="21" fill="none" xmlns="http://www.w3.org/2000/svg"><path d="M6.667 6.333V13c0 .92.746 1.667 1.666 1.667h5M6.667 6.333V4.667c0-.92.746-1.667 1.666-1.667h3.822c.22 0 .433.088.59.244l3.678 3.679a.833.833 0 0 1 .244.589V13c0 .92-.747 1.667-1.667 1.667h-1.667M6.667 6.333H5.333a2 2 0 0 0-2 2v8C3.333 17.253 4.08 18 5 18h6.333a2 2 0 0 0 2-2v-1.333" stroke="currentColor" strokeWidth="1.2" strokeLinecap="round" strokeLinejoin="round" /></svg>
